X: 5
T: The Peeler's Jacket
R: reel
M: 4/4
L: 1/8
K: Gmaj
GABG EFGE|ABcA "(*)"DFAF|G2dg ecAG|FGAF DcBA|
GzBG EFGE|ABcA DFAF|G2dg ecAF|1"r"G3F G3D:|2"r"G3F G3B||
|:dedc Bcdg|(3efg ed ^cdef|g2gd ecAG|"(**)"FGAF DcBA|
GzBG EFGE|ABcA DFAF|G2dg ecAF|1 "r"G3F G3B:|2 G2BA G4||
"alternatives"
"(*)"FDFA "(**)"FGEF


Tune 1343	Setting 14692

